X:5
T:No.67 The Atholl Highlanders
C:jig
M:6/8
L:1/8
K:D
e3ecA|ecA Bcd|e3ecA|
Bcd cBA|e3ecA|ecA Bcd|
eae fed|[1cdB Acd:|[2cdBA3||
Ace Ace|Adf Adf|Ace Ace|Bcdc2B|
Ace Ace|Adf Adf|eae fed|cdBA3:|
aee edc|aee edc|aee edc|Bcd cBA|
aee edc|aee edc|eae fed|cdBA3:|
cAc cAc|dBd dBd|cAc cAc|BGB BGB|
cAc cAc|dBd dBd|eae fed|cdBA3:|
